; generated by Slic3r Prusa Edition 1.42.0-beta2+win64 on 2020-01-23 at 14:07:43

; 

; external perimeters extrusion width = 0.45mm
; perimeters extrusion width = 0.45mm
; infill extrusion width = 0.45mm
; solid infill extrusion width = 0.45mm
; top infill extrusion width = 0.40mm
; first layer extrusion width = 0.40mm

M73 P0 R58
M73 Q0 S58
M201 X9000 Y9000 Z500 E10000 ; sets maximum accelerations, mm/sec^2
M203 X500 Y500 Z12 E120 ; sets maximum feedrates, mm/sec
M204 P1500 R1500 T1500 ; sets acceleration (P, T) and retract acceleration (R), mm/sec^2
M205 X10.00 Y10.00 Z0.20 E2.50 ; sets the jerk limits, mm/sec
M205 S0 T0 ; sets the minimum extruding and travel feed rate, mm/sec
M107
M201 X500 Y500 Z100 E5000 ; sets maximum accelerations, mm/sec^2
M203 X500 Y500 Z5 E25 ; sets maximum feedrates, mm/sec
M204 S500 T500 ; sets acceleration (S) and retract acceleration (T)
M205 X10 Y10 Z0.3 E5.0 ; sets the jerk limits, mm/sec
M205 S0 T0 ; sets the minimum extruding and travel feed rate, mm/sec
G90; absolute positioning
M117 Heating... ;Put printing message on LCD screen
M300 S2500 P100; Beep
;M221 S95 ; Set flow
M104 S215 ; set extruder temp
M140 S60 ; set bed temp
G1 Z20 ; this is a good start heating position
G28 X Y; Home XY
M84 ; disable motors
M190 S60 ; wait for bed temp
M109 S215 ; wait for extruder temp

; Start of print
G21; metric values
G90 ; absolute positioning
M82; set extruder to absolute mode

G28;

; Prepare nozzle
G92 E0 ; Set extrusion distance to 0
G92 E0 ; Set extrusion distance to 0
G1 F1800 E3;
M73 Q0 S58
M73 P0 R58
G92 E0 ; Set extrusion distance to 0
G90;


; You may want to adjust the X and Y here so the nozzle is really above the bed!
G1 X5.0 Y5.0 F7200 ; Move to a position in the left front of the bed
G1 Z0.6; Move nozzle above 0.6 mm of the bed

G91 ; Use relative mode
; Make some jerky zick-zack move at the beginning
; This is supposed to get rid of residue at the nozzle
G1 X1.0 Y5.0 Z-0.1 E-1.0 F7200 ; X6 Y10 Z0.1, retract a tiny bit / 120mm/s
G1 X1.0 Y-5.0 Z0.1 E2.0 F7200 ; X7 Y5 Z0.2 extrude a tiny bit
G1 X2.0 Y5.0 Z-0.1 F7200 ; X9 Y10 Z0.1
G1 X2.0 Y-5.0 Z0.1 F7200 ; X11 Y5 Z0.2
G1 X2.0 Y5.0 F7200 ; X13 Y10
G1 X2.0 Y-5.0 F7200 ; X15 Y5

; now print a line of filament to prepare extrusion
G1 Y50 E20 F1000 ; prints a line in the front
G1 Y50 E40 F1000 ; prints a line in the front

; Done with the dancing :)
G92 E0 ; Set extrusion distance to 0
G90 ; switch back to absolute mode

M117 Printing... ;Put printing message on LCD screen
; Start of actual GCode for the print
M900 K30 ; Filament gcode
G21 ; set units to millimeters
G90 ; use absolute coordinates
M83 ; use relative distances for extrusion
G1 Z0.200 F7800.000
G1 E-2.00000 F3600.00000
G1 Z0.800 F7800.000
G1 X90.587 Y90.032
G1 Z0.200
G1 E2.00000 F3600.00000
G1 F1800
G1 X91.392 Y89.360 E0.03111
G1 X92.268 Y88.771 E0.03134
G1 X93.193 Y88.280 E0.03111
G1 X94.164 Y87.886 E0.03111
G1 X95.170 Y87.594 E0.03111
G1 X96.201 Y87.407 E0.03111
G1 X97.466 Y87.323 E0.03765
G1 X122.508 Y87.323 E0.74353
G1 X124.249 Y87.475 E0.05189
G1 X125.931 Y87.919 E0.05165
G1 X127.512 Y88.643 E0.05165
G1 X128.948 Y89.626 E0.05165
G1 X130.194 Y90.839 E0.05165
G1 X131.216 Y92.247 E0.05165
G1 X131.984 Y93.809 E0.05165
G1 X132.475 Y95.485 E0.05189
G1 X132.677 Y97.434 E0.05818
G1 X132.663 Y123.020 E0.75967
G1 X132.488 Y124.450 E0.04279
G1 X132.113 Y125.842 E0.04279
G1 X131.544 Y127.166 E0.04279
G1 X130.794 Y128.396 E0.04279
G1 X130.087 Y129.283 E0.03368
G1 X129.285 Y130.085 E0.03368
G1 X128.405 Y130.788 E0.03345
G1 X127.446 Y131.394 E0.03368
G1 X126.425 Y131.889 E0.03368
G1 X125.356 Y132.268 E0.03368
G1 X124.251 Y132.525 E0.03368
G1 X123.125 Y132.658 E0.03368
G1 X96.901 Y132.659 E0.77860
G1 X95.488 Y132.476 E0.04232
G1 X94.121 Y132.100 E0.04209
G1 X92.820 Y131.537 E0.04209
G1 X91.604 Y130.794 E0.04232
G1 X90.717 Y130.087 E0.03368
G1 X89.915 Y129.285 E0.03368
G1 X89.212 Y128.405 E0.03345
G1 X88.606 Y127.446 E0.03368
G1 X88.111 Y126.425 E0.03368
G1 X87.732 Y125.356 E0.03368
G1 X87.475 Y124.251 E0.03368
G1 X87.342 Y123.125 E0.03368
G1 X87.341 Y96.901 E0.77860
G1 X87.524 Y95.488 E0.04232
G1 X87.900 Y94.121 E0.04209
G1 X88.463 Y92.820 E0.04209
G1 X89.206 Y91.604 E0.04232
G1 X89.856 Y90.782 E0.03111
G1 X90.545 Y90.075 E0.02933
G1 X90.893 Y90.479 F7800.000
G1 F1800
G1 X92.854 Y88.791 E0.07681
G1 X94.648 Y88.069 E0.05743
G1 X96.592 Y87.703 E0.05872
G1 X123.398 Y87.701 E0.79592
G1 X125.319 Y88.060 E0.05802
G1 X127.119 Y88.781 E0.05759
G1 X129.595 Y90.681 E0.09267
G1 X131.384 Y93.244 E0.09279
G1 X132.251 Y96.211 E0.09178
G1 X132.320 Y123.234 E0.80236
G1 X131.719 Y125.974 E0.08327
G1 X130.350 Y128.450 E0.08401
G1 X127.140 Y131.212 E0.12575
G1 X125.194 Y131.976 E0.06206
G1 X123.149 Y132.320 E0.06156
G1 X96.763 Y132.320 E0.78345
G1 X94.026 Y131.719 E0.08319
G1 X91.550 Y130.350 E0.08401
G1 X88.788 Y127.140 E0.12575
G1 X88.024 Y125.194 E0.06206
G1 X87.680 Y123.149 E0.06156
G1 X87.680 Y96.763 E0.78345
G1 X88.281 Y94.026 E0.08319
G1 X89.650 Y91.550 E0.08401
G1 X90.848 Y90.518 E0.04695
G1 X91.074 Y90.781 F7800.000
G1 F1800
G1 X93.014 Y89.111 E0.07600
G1 X94.765 Y88.407 E0.05603
G1 X96.641 Y88.057 E0.05665
G1 X123.349 Y88.055 E0.79302
G1 X125.203 Y88.398 E0.05596
G1 X126.963 Y89.103 E0.05632
G1 X129.355 Y90.947 E0.08966
G1 X131.074 Y93.423 E0.08950
G1 X131.901 Y96.286 E0.08847
G1 X131.963 Y123.215 E0.79957
G1 X131.376 Y125.871 E0.08076
G1 X130.054 Y128.249 E0.08078
G1 X126.981 Y130.891 E0.12034
G1 X125.116 Y131.627 E0.05952
G1 X123.134 Y131.963 E0.05968
G1 X96.783 Y131.963 E0.78242
G1 X94.129 Y131.376 E0.08069
G1 X91.751 Y130.054 E0.08078
G1 X89.109 Y126.981 E0.12034
G1 X88.373 Y125.116 E0.05952
G1 X88.037 Y123.134 E0.05968
G1 X88.037 Y96.783 E0.78242
G1 X88.624 Y94.129 E0.08069
G1 X89.946 Y91.751 E0.08078
G1 X91.029 Y90.820 E0.04240
G1 X91.255 Y91.083 F7800.000
G1 F1800
G1 X93.175 Y89.432 E0.07519
G1 X94.881 Y88.745 E0.05462
G1 X96.689 Y88.411 E0.05458
G1 X123.301 Y88.409 E0.79012
G1 X125.120 Y88.746 E0.05494
G1 X126.807 Y89.425 E0.05399
G1 X129.115 Y91.212 E0.08666
G1 X130.764 Y93.601 E0.08619
G1 X131.551 Y96.360 E0.08517
G1 X131.606 Y123.196 E0.79680
G1 X131.033 Y125.768 E0.07822
G1 X129.758 Y128.047 E0.07755
G1 X126.821 Y130.570 E0.11496
G1 X125.037 Y131.278 E0.05699
G1 X123.119 Y131.606 E0.05778
G1 X96.802 Y131.606 E0.78138
G1 X94.232 Y131.033 E0.07817
G1 X91.953 Y129.758 E0.07755
G1 X89.430 Y126.821 E0.11496
G1 X88.722 Y125.037 E0.05699
G1 X88.394 Y123.119 E0.05778
G1 X88.394 Y96.802 E0.78138
G1 X88.967 Y94.232 E0.07817
G1 X90.242 Y91.953 E0.07755
G1 X91.209 Y91.122 E0.03786
G1 X91.435 Y91.385 F7800.000
G1 F1800
G1 X93.336 Y89.752 E0.07441
G1 X94.964 Y89.093 E0.05216
G1 X96.738 Y88.765 E0.05356
G1 X123.252 Y88.764 E0.78725
G1 X125.004 Y89.084 E0.05286
G1 X126.650 Y89.747 E0.05270
G1 X128.873 Y91.477 E0.08363
G1 X130.452 Y93.779 E0.08289
G1 X131.201 Y96.433 E0.08188
G1 X131.249 Y123.177 E0.79407
G1 X130.709 Y125.616 E0.07417
G1 X129.462 Y127.845 E0.07584
G1 X126.662 Y130.249 E0.10958
G1 X124.923 Y130.940 E0.05555
G1 X123.104 Y131.248 E0.05478
G1 X96.822 Y131.248 E0.78036
G1 X94.384 Y130.709 E0.07413
G1 X92.155 Y129.462 E0.07584
G1 X89.751 Y126.662 E0.10958
G1 X89.060 Y124.923 E0.05555
G1 X88.752 Y123.104 E0.05478
G1 X88.752 Y96.822 E0.78036
G1 X89.291 Y94.384 E0.07413
G1 X90.538 Y92.155 E0.07584
G1 X91.389 Y91.424 E0.03331
G1 X91.615 Y91.687 F7800.000
G1 F1800
G1 X93.497 Y90.072 E0.07362
G1 X95.081 Y89.431 E0.05075
G1 X96.786 Y89.120 E0.05146
G1 X123.205 Y89.118 E0.78441
G1 X124.887 Y89.422 E0.05076
G1 X126.493 Y90.069 E0.05141
G1 X128.631 Y91.741 E0.08058
G1 X130.141 Y93.955 E0.07958
G1 X130.850 Y96.505 E0.07859
G1 X130.891 Y123.158 E0.79135
G1 X130.366 Y125.512 E0.07163
G1 X129.166 Y127.642 E0.07259
G1 X126.502 Y129.929 E0.10424
G1 X124.844 Y130.591 E0.05301
G1 X123.089 Y130.891 E0.05287
G1 X96.841 Y130.891 E0.77932
G1 X94.488 Y130.366 E0.07160
G1 X92.358 Y129.166 E0.07259
G1 X90.071 Y126.502 E0.10424
G1 X89.409 Y124.844 E0.05301
G1 X89.109 Y123.089 E0.05287
G1 X89.109 Y96.841 E0.77932
G1 X89.634 Y94.488 E0.07160
G1 X90.834 Y92.358 E0.07259
G1 X91.570 Y91.726 E0.02879
G1 X91.796 Y91.989 F7800.000
G1 F1800
G1 X93.657 Y90.392 E0.07284
G1 X95.198 Y89.769 E0.04933
G1 X96.833 Y89.474 E0.04935
G1 X123.157 Y89.472 E0.78158
G1 X124.805 Y89.770 E0.04974
G1 X126.335 Y90.390 E0.04902
G1 X128.388 Y92.004 E0.07753
G1 X129.828 Y94.131 E0.07626
G1 X130.500 Y96.576 E0.07530
G1 X130.534 Y123.138 E0.78866
G1 X130.024 Y125.408 E0.06908
G1 X128.871 Y127.439 E0.06934
G1 X126.342 Y129.609 E0.09894
G1 X124.764 Y130.242 E0.05047
G1 X123.073 Y130.534 E0.05095
G1 X96.861 Y130.534 E0.77827
G1 X94.592 Y130.024 E0.06905
G1 X92.561 Y128.871 E0.06934
G1 X90.391 Y126.342 E0.09894
G1 X89.758 Y124.764 E0.05047
G1 X89.466 Y123.073 E0.05095
G1 X89.466 Y96.861 E0.77827
G1 X89.976 Y94.592 E0.06905
G1 X91.129 Y92.561 E0.06934
G1 X91.750 Y92.028 E0.02429
G1 X91.976 Y92.292 F7800.000
G1 F1800
G1 X93.818 Y90.712 E0.07206
G1 X95.314 Y90.107 E0.04791
G1 X96.880 Y89.828 E0.04723
G1 X123.110 Y89.826 E0.77879
G1 X124.689 Y90.108 E0.04761
G1 X126.177 Y90.711 E0.04770
G1 X128.145 Y92.266 E0.07446
G1 X129.515 Y94.305 E0.07293
G1 X130.149 Y96.646 E0.07202
G1 X130.177 Y123.118 E0.78598
G1 X129.682 Y125.302 E0.06650
G1 X128.576 Y127.235 E0.06609
G1 X126.181 Y129.288 E0.09367
G1 X124.649 Y129.904 E0.04904
G1 X123.058 Y130.177 E0.04792
G1 X96.881 Y130.177 E0.77723
G1 X94.698 Y129.682 E0.06649
G1 X92.765 Y128.576 E0.06609
G1 X90.712 Y126.181 E0.09367
G1 X90.096 Y124.649 E0.04904
G1 X89.823 Y123.058 E0.04792
G1 X89.823 Y96.881 E0.77723
G1 X90.318 Y94.698 E0.06649
G1 X91.424 Y92.765 E0.06609
G1 X91.930 Y92.331 E0.01982
G1 X92.156 Y92.594 F7800.000
G1 F1800
G1 X93.980 Y91.032 E0.07130
G1 X95.395 Y90.455 E0.04539
G1 X96.927 Y90.183 E0.04620
G1 X123.094 Y90.183 E0.77692
G1 X124.607 Y90.456 E0.04564
G1 X126.019 Y91.032 E0.04528
G1 X127.900 Y92.528 E0.07138
G1 X129.202 Y94.478 E0.06960
G1 X129.798 Y96.716 E0.06875
G1 X129.820 Y123.099 E0.78335
G1 X129.358 Y125.148 E0.06238
G1 X128.282 Y127.031 E0.06439
G1 X126.021 Y128.968 E0.08841
G1 X124.569 Y129.555 E0.04650
G1 X123.043 Y129.820 E0.04598
G1 X96.901 Y129.820 E0.77618
G1 X94.852 Y129.358 E0.06238
G1 X92.969 Y128.282 E0.06439
G1 X91.032 Y126.021 E0.08841
G1 X90.445 Y124.569 E0.04650
G1 X90.180 Y123.043 E0.04598
G1 X90.180 Y96.901 E0.77618
G1 X90.642 Y94.852 E0.06238
G1 X91.718 Y92.969 E0.06439
G1 X92.110 Y92.633 E0.01533
G1 X92.336 Y92.897 F7800.000
G1 F1800
G1 X94.141 Y91.352 E0.07055
G1 X95.512 Y90.793 E0.04396
G1 X96.973 Y90.537 E0.04405
G1 X123.078 Y90.540 E0.77508
M73 Q1 S57
M73 P1 R57
G1 X124.489 Y90.794 E0.04256
G1 X125.860 Y91.353 E0.04395
G1 X127.655 Y92.789 E0.06827
G1 X128.887 Y94.650 E0.06627
G1 X129.447 Y96.784 E0.06549
G1 X129.463 Y123.079 E0.78074
G1 X129.016 Y125.043 E0.05980
G1 X127.988 Y126.826 E0.06112
G1 X125.859 Y128.648 E0.08321
G1 X124.488 Y129.207 E0.04396
G1 X123.027 Y129.463 E0.04403
G1 X96.921 Y129.463 E0.77512
G1 X94.957 Y129.016 E0.05980
G1 X93.174 Y127.988 E0.06112
G1 X91.352 Y125.859 E0.08321
G1 X90.793 Y124.488 E0.04396
G1 X90.537 Y123.027 E0.04403
G1 X90.537 Y96.921 E0.77512
G1 X90.984 Y94.957 E0.05980
G1 X92.012 Y93.174 E0.06112
G1 X92.291 Y92.936 E0.01088
G1 X92.516 Y93.200 F7800.000
G1 F1800
G1 X94.303 Y91.671 E0.06982
G1 X95.594 Y91.141 E0.04143
G1 X96.989 Y90.894 E0.04208
G1 X123.062 Y90.898 E0.77413
G1 X124.406 Y91.142 E0.04058
G1 X125.700 Y91.673 E0.04151
G1 X127.409 Y93.049 E0.06516
G1 X128.572 Y94.821 E0.06292
G1 X129.095 Y96.850 E0.06223
G1 X129.106 Y123.058 E0.77815
G1 X128.675 Y124.936 E0.05720
G1 X127.695 Y126.620 E0.05785
G1 X125.697 Y128.329 E0.07806
G1 X124.406 Y128.859 E0.04142
G1 X123.011 Y129.106 E0.04207
G1 X96.942 Y129.106 E0.77404
G1 X95.064 Y128.675 E0.05720
G1 X93.380 Y127.695 E0.05785
G1 X91.671 Y125.697 E0.07806
G1 X91.141 Y124.406 E0.04142
G1 X90.894 Y123.011 E0.04207
G1 X90.894 Y96.942 E0.77404
G1 X91.325 Y95.064 E0.05720
G1 X92.305 Y93.380 E0.05785
G1 X92.471 Y93.239 E0.00646
G1 X92.696 Y93.503 F7800.000
G1 F1800
G1 X94.465 Y91.991 E0.06909
G1 X95.712 Y91.479 E0.04001
G1 X97.005 Y91.251 E0.03899
G1 X123.045 Y91.255 E0.77318
G1 X124.323 Y91.489 E0.03857
G1 X125.539 Y91.993 E0.03907
G1 X127.162 Y93.309 E0.06205
G1 X128.257 Y94.990 E0.05957
G1 X128.744 Y96.916 E0.05898
G1 X128.749 Y123.038 E0.77559
G1 X128.333 Y124.828 E0.05457
G1 X127.402 Y126.413 E0.05458
G1 X125.535 Y128.009 E0.07294
G1 X124.289 Y128.521 E0.04001
G1 X122.996 Y128.749 E0.03897
G1 X96.962 Y128.749 E0.77297
G1 X95.172 Y128.333 E0.05457
G1 X93.587 Y127.402 E0.05458
G1 X91.991 Y125.535 E0.07294
G1 X91.479 Y124.289 E0.04001
G1 X91.251 Y122.996 E0.03897
G1 X91.251 Y96.962 E0.77297
G1 X91.667 Y95.172 E0.05457
G1 X92.598 Y93.587 E0.05458
G1 X92.651 Y93.542 E0.00206
G1 X92.890 Y93.795 F7800.000
G1 F1800
G1 X94.628 Y92.310 E0.06788
G1 X95.794 Y91.827 E0.03747
G1 X97.021 Y91.608 E0.03700
G1 X123.029 Y91.612 E0.77221
G1 X124.239 Y91.837 E0.03654
G1 X125.377 Y92.312 E0.03662
G1 X126.914 Y93.567 E0.05893
G1 X127.940 Y95.158 E0.05622
G1 X128.392 Y96.980 E0.05574
G1 X128.392 Y123.017 E0.77306
G1 X127.992 Y124.719 E0.05192
G1 X127.110 Y126.205 E0.05130
G1 X125.372 Y127.690 E0.06788
G1 X124.207 Y128.173 E0.03746
G1 X122.980 Y128.392 E0.03699
G1 X96.983 Y128.392 E0.77188
G1 X95.281 Y127.992 E0.05192
G1 X93.795 Y127.110 E0.05130
G1 X92.310 Y125.372 E0.06788
G1 X91.827 Y124.207 E0.03746
G1 X91.608 Y122.980 E0.03699
G1 X91.608 Y96.983 E0.77188
G1 X92.008 Y95.281 E0.05192
G1 X92.859 Y93.846 E0.04952
G1 X93.166 Y94.028 F7800.000
G1 F1800
G1 X94.791 Y92.628 E0.06369
G1 X95.877 Y92.175 E0.03492
G1 X97.037 Y91.965 E0.03500
G1 X123.012 Y91.969 E0.77123
G1 X124.153 Y92.184 E0.03449
G1 X125.214 Y92.631 E0.03416
G1 X126.666 Y93.825 E0.05583
G1 X127.601 Y95.274 E0.05120
G1 X128.035 Y97.003 E0.05292
G1 X128.035 Y122.997 E0.77180
G1 X127.671 Y124.561 E0.04769
G1 X126.818 Y125.998 E0.04961
G1 X125.209 Y127.372 E0.06283
G1 X124.123 Y127.825 E0.03492
G1 X122.964 Y128.035 E0.03499
G1 X97.003 Y128.035 E0.77080
G1 X95.439 Y127.671 E0.04769
G1 X94.002 Y126.818 E0.04961
G1 X92.628 Y125.209 E0.06283
G1 X92.175 Y124.123 E0.03492
G1 X91.965 Y122.964 E0.03499
G1 X91.965 Y97.003 E0.77080
G1 X92.329 Y95.439 E0.04769
G1 X93.136 Y94.080 E0.04692
G1 X93.441 Y94.263 F7800.000
G1 F1800
G1 X93.473 Y94.211 E0.00181
G1 X94.956 Y92.946 E0.05787
G1 X95.961 Y92.522 E0.03239
G1 X97.053 Y92.322 E0.03298
G1 X122.995 Y92.326 E0.77026
G1 X124.032 Y92.520 E0.03133
G1 X125.050 Y92.950 E0.03280
G1 X126.416 Y94.082 E0.05267
G1 X127.285 Y95.441 E0.04789
G1 X127.678 Y97.024 E0.04844
G1 X127.678 Y122.976 E0.77054
G1 X127.330 Y124.452 E0.04502
G1 X126.527 Y125.789 E0.04631
G1 X125.044 Y127.054 E0.05787
G1 X124.040 Y127.478 E0.03238
G1 X122.947 Y127.678 E0.03297
G1 X97.024 Y127.678 E0.76969
G1 X95.548 Y127.330 E0.04502
G1 X94.211 Y126.527 E0.04631
G1 X92.946 Y125.044 E0.05787
G1 X92.522 Y124.040 E0.03238
G1 X92.322 Y122.947 E0.03297
G1 X92.322 Y97.024 E0.76969
G1 X92.670 Y95.548 E0.04502
G1 X93.410 Y94.315 E0.04272
G1 X93.715 Y94.500 F7800.000
G1 F1800
G1 X93.763 Y94.421 E0.00273
G1 X95.120 Y93.265 E0.05294
G1 X96.081 Y92.859 E0.03099
G1 X97.069 Y92.679 E0.02981
G1 X122.978 Y92.683 E0.76928
G1 X123.946 Y92.867 E0.02926
G1 X124.886 Y93.267 E0.03032
G1 X126.165 Y94.337 E0.04952
G1 X126.967 Y95.607 E0.04458
G1 X127.321 Y97.046 E0.04399
G1 X127.321 Y122.954 E0.76927
G1 X126.989 Y124.341 E0.04232
G1 X126.237 Y125.579 E0.04301
G1 X124.880 Y126.735 E0.05294
G1 X123.919 Y127.141 E0.03099
G1 X122.931 Y127.321 E0.02980
G1 X97.046 Y127.321 E0.76859
G1 X95.659 Y126.989 E0.04232
G1 X94.421 Y126.237 E0.04301
G1 X93.265 Y124.880 E0.05294
G1 X92.859 Y123.919 E0.03099
G1 X92.679 Y122.931 E0.02980
G1 X92.679 Y97.046 E0.76859
G1 X93.011 Y95.659 E0.04232
G1 X93.684 Y94.551 E0.03850
G1 X93.987 Y94.738 F7800.000
G1 F1800
G1 X94.052 Y94.632 E0.00366
G1 X95.285 Y93.582 E0.04809
G1 X96.166 Y93.206 E0.02844
G1 X97.085 Y93.036 E0.02776
G1 X122.961 Y93.040 E0.76827
G1 X123.859 Y93.214 E0.02716
G1 X124.720 Y93.585 E0.02783
G1 X125.914 Y94.592 E0.04639
G1 X126.628 Y95.721 E0.03966
G1 X126.963 Y97.068 E0.04121
G1 X126.963 Y122.933 E0.76797
